assets/images/Live/trailer.svg

<svg width="43" height="30" viewBox="0 0 43 30" fill="none" xmlns="http://www.w3.org/2000/svg">
<path d="M13.3358 23.064C12.5637 23.064 11.932 23.7336 11.932 24.552C11.932 25.3704 12.5637 26.04 13.3358 26.04C14.1079 26.04 14.7396 25.3704 14.7396 24.552C14.7396 23.7336 14.1079 23.064 13.3358 23.064Z" fill="#2F70B6"/>
<path d="M23.1622 23.064C22.3901 23.064 21.7584 23.7336 21.7584 24.552C21.7584 25.3704 22.3901 26.04 23.1622 26.04C23.9343 26.04 24.566 25.3704 24.566 24.552C24.566 23.7336 23.9343 23.064 23.1622 23.064Z" fill="#2F70B6"/>
<path d="M41.4115 23.8081H36.4983V1.48803C36.4983 0.669603 35.8666 0 35.0945 0H1.40381C0.6317 0 0 0.669603 0 1.48803V23.8081C0 24.6265 0.6317 25.2962 1.40381 25.2962H9.18466C9.52148 27.4003 11.2588 29.0162 13.336 29.0162C15.4131 29.0162 17.1504 27.4003 17.4872 25.2962H19.0111C19.348 27.4003 21.0853 29.0162 23.1624 29.0162C25.2396 29.0162 26.9769 27.4003 27.3137 25.2962H35.7964H41.4115C41.8326 25.2962 42.1134 24.9986 42.1134 24.5522C42.1134 24.1058 41.8326 23.8081 41.4115 23.8081ZM1.40381 22.3201H4.21134C4.63247 22.3201 4.9132 22.0225 4.9132 21.5761C4.9132 21.1297 4.63247 20.8321 4.21134 20.8321H1.40381V19.3441H6.317C6.73814 19.3441 7.01887 19.0465 7.01887 18.6001C7.01887 18.1537 6.73814 17.8561 6.317 17.8561H1.40381V1.48803H35.0945V23.8081H27.3136C27.0767 22.3277 26.1463 21.0899 24.8918 20.4857C24.864 20.4722 24.8364 20.4584 24.8081 20.4455C24.7905 20.4374 24.7726 20.4302 24.7548 20.4224C24.7094 20.4025 24.6636 20.3829 24.6173 20.3647C24.6048 20.3598 24.5921 20.3553 24.5796 20.3505C24.5282 20.3308 24.4763 20.312 24.4239 20.2944C24.4125 20.2905 24.4012 20.2869 24.3897 20.2833C24.3364 20.2659 24.2826 20.2495 24.2283 20.2345C24.2163 20.2311 24.2043 20.2278 24.1922 20.2246C24.1389 20.2103 24.0852 20.1971 24.031 20.1849C24.0174 20.1819 24.0038 20.1787 23.9901 20.1759C23.9378 20.1647 23.8851 20.1548 23.832 20.1457C23.8163 20.143 23.8007 20.1401 23.7849 20.1376C23.7338 20.1295 23.6823 20.1228 23.6305 20.1167C23.613 20.1146 23.5956 20.1121 23.578 20.1102C23.5262 20.1048 23.4741 20.1009 23.4218 20.0975C23.4045 20.0964 23.3875 20.0946 23.3701 20.0937C23.3013 20.0902 23.2319 20.0881 23.1621 20.0881C23.0923 20.0881 23.0229 20.0902 22.9541 20.0937C22.9368 20.0946 22.9197 20.0964 22.9024 20.0975C22.8501 20.1009 22.798 20.1048 22.7462 20.1102C22.7286 20.112 22.7112 20.1146 22.6937 20.1167C22.6419 20.1228 22.5904 20.1296 22.5393 20.1376C22.5235 20.1401 22.5079 20.143 22.4921 20.1457C22.439 20.1548 22.3864 20.1647 22.3341 20.1758C22.3203 20.1787 22.3068 20.1818 22.2931 20.1849C22.239 20.197 22.1853 20.2102 22.132 20.2245C22.12 20.2277 22.1079 20.231 22.0959 20.2344C22.0416 20.2495 21.9878 20.2659 21.9345 20.2833C21.9231 20.2869 21.9118 20.2905 21.9004 20.2944C21.8479 20.312 21.7961 20.3308 21.7446 20.3505C21.7321 20.3553 21.7196 20.3598 21.7071 20.3647C21.6607 20.383 21.6148 20.4026 21.5693 20.4226C21.5516 20.4304 21.5337 20.4376 21.5162 20.4455C21.488 20.4584 21.4603 20.4724 21.4324 20.4859C20.1781 21.0901 19.2477 22.3278 19.0108 23.8082H17.4869C17.2499 22.3278 16.3196 21.0899 15.0651 20.4858C15.0373 20.4723 15.0096 20.4584 14.9814 20.4455C14.9638 20.4375 14.9459 20.4303 14.9281 20.4225C14.8826 20.4026 14.8369 20.383 14.7906 20.3648C14.7781 20.3599 14.7654 20.3554 14.7528 20.3506C14.7014 20.3309 14.6495 20.3121 14.5971 20.2944C14.5858 20.2906 14.5744 20.287 14.563 20.2834C14.5097 20.266 14.4559 20.2497 14.4016 20.2345C14.3896 20.2312 14.3776 20.2279 14.3655 20.2247C14.3122 20.2104 14.2585 20.1971 14.2044 20.185C14.1907 20.182 14.1771 20.1788 14.1634 20.176C14.1111 20.1648 14.0584 20.1549 14.0054 20.1458C13.9897 20.1431 13.9741 20.1402 13.9583 20.1377C13.9072 20.1296 13.8556 20.1229 13.8039 20.1168C13.7864 20.1147 13.7689 20.1122 13.7513 20.1103C13.6996 20.1049 13.6474 20.101 13.5951 20.0976C13.5779 20.0964 13.5608 20.0947 13.5435 20.0938C13.4746 20.0903 13.4053 20.0882 13.3355 20.0882C13.2656 20.0882 13.1963 20.0903 13.1274 20.0938C13.1102 20.0947 13.0931 20.0964 13.0758 20.0976C13.0235 20.101 12.9713 20.1049 12.9196 20.1103C12.902 20.1121 12.8845 20.1147 12.867 20.1168C12.8153 20.1229 12.7637 20.1297 12.7126 20.1377C12.6968 20.1402 12.6812 20.1431 12.6654 20.1458C12.6124 20.1549 12.5597 20.1648 12.5074 20.1759C12.4937 20.1788 12.4801 20.1819 12.4665 20.1849C12.4123 20.1971 12.3586 20.2103 12.3053 20.2246C12.2933 20.2278 12.2812 20.2311 12.2692 20.2345C12.2149 20.2496 12.1611 20.2659 12.1078 20.2834C12.0965 20.287 12.0851 20.2906 12.0738 20.2944C12.0213 20.3121 11.9695 20.3309 11.918 20.3506C11.9055 20.3554 11.8929 20.3599 11.8804 20.3648C11.834 20.3831 11.7882 20.4026 11.7426 20.4227C11.725 20.4305 11.7071 20.4377 11.6896 20.4456C11.6614 20.4585 11.6337 20.4725 11.6058 20.486C10.3514 21.0902 9.42105 22.3279 9.18417 23.8083H1.40381V22.3201ZM13.3359 27.5281C11.7917 27.5281 10.5283 26.1889 10.5283 24.5521C10.5283 22.9153 11.7917 21.5761 13.3359 21.5761C14.88 21.5761 16.1434 22.9153 16.1434 24.5521C16.1435 26.1889 14.8801 27.5281 13.3359 27.5281ZM23.1623 27.5281C21.6182 27.5281 20.3548 26.1889 20.3548 24.5521C20.3548 22.9153 21.6182 21.5761 23.1623 21.5761C24.7065 21.5761 25.9699 22.9153 25.9699 24.5521C25.9699 26.1889 24.7065 27.5281 23.1623 27.5281Z" fill="#2F70B6"/>
<path d="M14.7396 10.4158V4.4637C14.7396 4.0173 14.4589 3.71973 14.0377 3.71973H5.61507C5.19394 3.71973 4.91321 4.0173 4.91321 4.4637V10.4158C4.91321 10.8622 5.19394 11.1597 5.61507 11.1597H14.0377C14.4589 11.1597 14.7396 10.8622 14.7396 10.4158ZM13.3358 9.67169H6.31693V5.20767H13.3358V9.67169V9.67169Z" fill="#2F70B6"/>
<path d="M22.4605 11.1597H30.8832C31.3043 11.1597 31.5851 10.8622 31.5851 10.4158V4.4637C31.5851 4.0173 31.3043 3.71973 30.8832 3.71973H22.4605C22.0394 3.71973 21.7587 4.0173 21.7587 4.4637V10.4158C21.7586 10.8622 22.0394 11.1597 22.4605 11.1597ZM23.1624 5.20767H30.1813V9.67169H23.1624V5.20767Z" fill="#2F70B6"/>
</svg>

<svg xmlns="http://www.w3.org/2000/svg" width="43" height="30" fill="none" viewBox="0 0 43 30"><path fill="#2F70B6" d="M13.336 23.064c-.772 0-1.404.67-1.404 1.488s.632 1.488 1.404 1.488c.772 0 1.404-.67 1.404-1.488s-.632-1.488-1.404-1.488zM23.162 23.064c-.772 0-1.404.67-1.404 1.488s.632 1.488 1.404 1.488c.772 0 1.404-.67 1.404-1.488s-.632-1.488-1.404-1.488z"/><path fill="#2F70B6" d="M41.411 23.808h-4.913V1.488C36.498.67 35.867 0 35.094 0H1.404C.632 0 0 .67 0 1.488v22.32c0 .819.632 1.488 1.404 1.488h7.78c.337 2.104 2.075 3.72 4.152 3.72s3.814-1.616 4.151-3.72h1.524c.337 2.104 2.074 3.72 4.151 3.72 2.078 0 3.815-1.616 4.152-3.72H41.41c.422 0 .702-.297.702-.744 0-.446-.28-.744-.702-.744zM1.404 22.32H4.21c.421 0 .702-.297.702-.744 0-.446-.28-.744-.702-.744H1.404v-1.488h4.913c.421 0 .702-.297.702-.744 0-.446-.28-.744-.702-.744H1.404V1.488h33.69v22.32h-7.78c-.237-1.48-1.168-2.718-2.422-3.322-.028-.014-.056-.028-.084-.04-.017-.009-.035-.016-.053-.024a3.87 3.87 0 0 0-.138-.057l-.037-.014a3.945 3.945 0 0 0-.549-.166l-.04-.01a3.903 3.903 0 0 0-.159-.03l-.047-.007a3.899 3.899 0 0 0-.154-.021l-.053-.007a4.025 4.025 0 0 0-.156-.012l-.052-.004a4.094 4.094 0 0 0-.416 0l-.052.003a4.025 4.025 0 0 0-.156.013l-.052.007a4.094 4.094 0 0 0-.155.02l-.047.009c-.053.009-.106.019-.158.03l-.04.009a3.942 3.942 0 0 0-.55.166l-.037.014a3.887 3.887 0 0 0-.138.058l-.053.023c-.028.012-.056.026-.084.04-1.254.604-2.184 1.842-2.421 3.322h-1.524c-.237-1.48-1.167-2.718-2.422-3.322-.028-.014-.055-.028-.084-.04-.017-.009-.035-.016-.053-.024a3.949 3.949 0 0 0-.137-.057l-.038-.014a4.113 4.113 0 0 0-.351-.116l-.036-.01a3.943 3.943 0 0 0-.162-.04l-.04-.009a3.932 3.932 0 0 0-.159-.03l-.047-.008a3.924 3.924 0 0 0-.154-.021l-.053-.007a4.01 4.01 0 0 0-.156-.012l-.052-.004a4.097 4.097 0 0 0-.416 0 4.01 4.01 0 0 0-.208.016l-.052.007a4.122 4.122 0 0 0-.154.02l-.048.009c-.053.009-.105.019-.158.03l-.04.009a4.076 4.076 0 0 0-.36.098l-.033.011a4.118 4.118 0 0 0-.156.057l-.038.014a3.782 3.782 0 0 0-.137.058l-.053.023c-.029.012-.056.026-.084.04-1.255.604-2.185 1.842-2.422 3.322h-7.78V22.32zm11.932 5.208c-1.544 0-2.808-1.34-2.808-2.976 0-1.637 1.264-2.976 2.808-2.976 1.544 0 2.807 1.34 2.807 2.976 0 1.637-1.263 2.976-2.807 2.976zm9.826 0c-1.544 0-2.807-1.34-2.807-2.976 0-1.637 1.263-2.976 2.807-2.976s2.808 1.34 2.808 2.976c0 1.637-1.264 2.976-2.808 2.976z"/><path fill="#2F70B6" d="M14.74 10.416V4.464c0-.447-.281-.744-.702-.744H5.615c-.421 0-.702.297-.702.744v5.952c0 .446.28.744.702.744h8.423c.42 0 .702-.298.702-.744zm-1.404-.744h-7.02V5.208h7.02v4.464zM22.46 11.16h8.423c.421 0 .702-.298.702-.744V4.464c0-.447-.28-.744-.702-.744h-8.422c-.422 0-.702.297-.702.744v5.952c0 .446.28.744.701.744zm.702-5.952h7.02v4.464h-7.02V5.208z"/></svg>
